FINK
CUT[HIER SIND WIR VERSAMMELT]
REG[Europa, Mitteleuropa, Deutschland]
KEY[F0499  08  C 4/4]
MEL[-5  -5_-3-4-5_-6-7  1_-7-6-5_0
    -5  -7_-7-71_-7-6  -5_-4#_-5_0
    -5  -5_-3-4-5_-6-7  1_-7-6-5_0
    -5  -7_-7-71_-7-6  -5_-4#_-5_0
    -5  2_21-7_-7-6  -5_-5-4-3_0
    -5  2_21-7_-7-6  -5_-5-4-3_0
    -1  -3-5-6-71_-5-5  -6-7123_0
    3  3_334_32  1_-7_1_0
    3  3_334_32  1__-7__  1__0_. //] >>
FCT[Studenten -, Trink - Lied]
